X:1
T:Saute de Lapin
K:

M:2/4

L:1/16
Q:120

R:Reel

K:G

|:"G"BcBA GABc|"G"d2B2"D7"A4|ABcB ABcd|"C"e2f2 "D7" (3(ded d2|!

"G"BcBA GABc|"G"d2B2 "D7"A4|ABcB ABcd|1"D7"edfd "G"g2 z2:|2 "D7"edfd "G"g2 |!

|:ef|"G"gdBc d2ef|gdBc d2dd|"D7"^cddd cddd|"D7"^cddd cddd|!

"G"gdBc d2ef|gdBc d2dd|"D7"^cddd cddd|"D7"edfd "G"g2:|!
